resources/icons/16px/horizontal-bar-chart-asc.svg

<svg xmlns="http://www.w3.org/2000/svg" viewBox="0 0 16 16">
  <path d="M1 3h5c.55 0 1-.45 1-1s-.45-1-1-1H1c-.55 0-1 .45-1 1s.45 1 1 1m0 4h7c.55 0 1-.45 1-1s-.45-1-1-1H1c-.55 0-1 .45-1 1s.45 1 1 1m14 6H1c-.55 0-1 .45-1 1s.45 1 1 1h14c.55 0 1-.45 1-1s-.45-1-1-1M1 11h10c.55 0 1-.45 1-1s-.45-1-1-1H1c-.55 0-1 .45-1 1s.45 1 1 1"/>
</svg>

<?xml version="1.0" encoding="utf-8"?>
<!-- Generator: Adobe Illustrator 18.0.0, SVG Export Plug-In . SVG Version: 6.00 Build 0)  -->
<svg version="1.1" id="Shape_2_1_" xmlns="http://www.w3.org/2000/svg" xmlns:xlink="http://www.w3.org/1999/xlink" x="0px" y="0px"
	 viewBox="0 0 16 16" enable-background="new 0 0 16 16" xml:space="preserve">
<g id="Shape_2">
	<g>
		<path fill-rule="evenodd" clip-rule="evenodd" d="M1,3h5c0.55,0,1-0.45,1-1S6.55,1,6,1H1C0.45,1,0,1.45,0,2S0.45,3,1,3z M1,7h7
			c0.55,0,1-0.45,1-1S8.55,5,8,5H1C0.45,5,0,5.45,0,6S0.45,7,1,7z M15,13H1c-0.55,0-1,0.45-1,1s0.45,1,1,1h14c0.55,0,1-0.45,1-1
			S15.55,13,15,13z M1,11h10c0.55,0,1-0.45,1-1s-0.45-1-1-1H1c-0.55,0-1,0.45-1,1S0.45,11,1,11z"/>
	</g>
</g>
</svg>
